X:19
T:Kesh Jig
M:6/8
K:G
"G"GAG GAB|"D"ABA ABd|"G"edd gdd|edB "D"dBA|
"G"GAG GAB|"D"ABA ABd|"G"edd gdB|1"D7"AGF "G"G2D:|2"D7"AGF "G"G2A||
|:"G"BAB dBd|"C"ege "G"dBG|"G"BAB dBG|"D"ABA AGA|
"G"BAB dBd|"C"ege "G"dBd|"Am"gfg "D7"aga|"G"bgg g2:|
